img/intro/6.svg

<svg width="209" height="256" viewBox="0 0 209 256" fill="none" xmlns="http://www.w3.org/2000/svg">
<g filter="url(#filter0_f_273_66779)">
<path fill-rule="evenodd" clip-rule="evenodd" d="M24.3392 63.5546L24.3142 63.5681L24.0463 63.7107L30.6928 60.1111L30.9409 59.9791L30.9838 59.9558C31.3004 59.7874 31.6299 59.6432 31.9594 59.4991L25.2887 63.1117C25.1482 63.172 25.0054 63.2403 24.86 63.3104C25.0524 63.2225 25.2464 63.1396 25.4418 63.0614L31.9613 59.4998C32.2281 59.3851 32.4861 59.299 32.7593 59.2079L32.8778 59.1683L32.9027 59.1548L32.9027 59.1548C33.196 59.0611 33.4893 58.9675 33.7712 58.9109L33.7718 58.9106C33.866 58.8918 33.9586 58.8703 34.0513 58.8487C34.2366 58.8057 34.4218 58.7627 34.6185 58.7412L34.6195 58.7407C34.9019 58.6842 35.16 58.6407 35.4553 58.6086L28.8111 62.2067C28.8121 62.2066 28.8131 62.2065 28.8142 62.2064L35.4554 58.6099L35.4555 58.6098C35.7254 58.5908 35.9953 58.5717 36.2892 58.5398L36.2933 58.5376C36.4288 58.528 36.5676 58.5245 36.7064 58.521C36.8451 58.5175 36.9839 58.514 37.1194 58.5045L30.4542 62.1137C30.4546 62.1137 30.455 62.1137 30.4554 62.1137L37.0951 58.5181C37.2371 58.5207 37.373 58.5265 37.5089 58.5323L37.5091 58.5324C37.645 58.5382 37.7808 58.544 37.9227 58.5466L31.2836 62.142C31.2838 62.142 31.2841 62.142 31.2843 62.1421L37.9222 58.5473C38.1907 58.5523 38.4489 58.5905 38.7067 58.6306L38.7396 58.6128C38.8202 58.6254 38.9029 58.6368 38.9868 58.6484C39.1868 58.6761 39.3936 58.7047 39.5948 58.7518L32.9504 62.35C32.9512 62.3502 32.952 62.3503 32.9528 62.3505L39.595 58.7534C39.7378 58.7869 39.8867 58.8171 40.0356 58.8473C40.1839 58.8774 40.3321 58.9075 40.4744 58.9407L40.4759 58.9399C40.7988 59.0182 41.0973 59.1095 41.3958 59.2007L41.3958 59.2007C41.72 59.2998 42.0215 59.411 42.3339 59.5445L42.3538 59.5337L42.4444 59.5715L42.4445 59.5716L42.4446 59.5716C42.7816 59.7123 43.1439 59.8636 43.4652 60.0367L36.8052 63.6433C36.8055 63.6435 36.8058 63.6436 36.8061 63.6438L43.4652 60.0376C43.9274 60.2605 44.3782 60.5207 44.842 60.8052L44.8421 60.8052C45.3363 61.097 45.7957 61.4377 46.2671 61.8025L46.2747 61.7983L195.575 179.932L189.55 183.224L195.586 179.955C196.178 180.421 196.673 180.94 197.095 181.497L190.432 185.105C191.39 186.346 191.978 187.787 192.196 189.252C192.193 189.131 192.176 188.988 192.137 188.857L192.136 188.858C192.12 188.71 192.093 188.599 192.052 188.465L198.723 184.852C198.747 184.932 198.763 185.017 198.777 185.096L198.777 185.096C198.787 185.149 198.796 185.199 198.807 185.244L198.808 185.243C198.848 185.378 198.864 185.526 198.867 185.649L192.198 189.261C192.24 189.548 192.269 189.837 192.283 190.125L198.951 186.513C198.962 186.614 198.962 186.721 198.961 186.818C198.961 186.863 198.961 186.906 198.962 186.945L198.962 186.945L198.937 187.427L192.28 191.032C192.248 191.6 192.16 192.16 192.016 192.704L192.048 192.687L192.171 192.092L198.842 188.48L198.71 189.113L198.659 189.141C198.584 189.388 198.508 189.634 198.42 189.859L191.776 193.457C191.263 194.825 190.367 196.04 189.091 196.917L189.101 196.911C190.376 196.037 191.258 194.842 191.763 193.498L198.434 189.885C197.891 191.331 196.887 192.616 195.478 193.491L195.029 193.734L172.597 207.573L172.585 207.58L172.623 207.559L166.36 210.951L165.94 211.21C163.376 212.793 160.025 212.544 157.469 210.559L30.1609 113.022C24.5711 108.742 20.6625 102.161 19.5683 95.1138L17.0322 79.0156C16.0736 72.928 18.5766 67.062 23.4245 64.0756C23.7693 63.8638 24.121 63.6692 24.4787 63.4919C24.4325 63.5132 24.3859 63.5341 24.3392 63.5546ZM191.97 192.872C191.945 192.978 191.912 193.079 191.874 193.18C191.908 193.078 191.94 192.975 191.97 192.872ZM192.293 190.57C192.316 190.714 192.312 190.85 192.282 190.979C192.289 190.843 192.293 190.706 192.293 190.57ZM192.284 190.164C192.298 190.295 192.31 190.425 192.293 190.546C192.293 190.419 192.29 190.292 192.284 190.164ZM190.293 184.93C189.914 184.429 189.435 183.964 188.918 183.569L188.917 183.569L188.915 183.568C189.434 183.981 189.894 184.438 190.293 184.93ZM39.6169 65.4352L40.5742 64.9123L39.6167 65.4308C39.2346 65.1348 38.8607 64.8543 38.4703 64.6025C38.8599 64.8599 39.242 65.1372 39.6153 65.4341L39.6169 65.4352ZM37.9063 64.2467C37.7798 64.1686 37.6512 64.0941 37.5216 64.0226C37.6505 64.0952 37.7788 64.1699 37.9063 64.2467ZM26.4379 62.7089C26.3677 62.7279 26.299 62.7472 26.2325 62.7671L26.2077 62.7805C26.1234 62.8075 26.0382 62.8374 25.9529 62.8693C26.1137 62.8126 26.2754 62.7591 26.4379 62.7089ZM197.118 181.485L190.447 185.097C190.626 185.315 190.78 185.546 190.934 185.777L190.935 185.776C191.034 185.961 191.122 186.124 191.232 186.275L197.903 182.662C197.812 182.492 197.721 182.321 197.593 182.139L197.589 182.141C197.44 181.918 197.291 181.695 197.118 181.485ZM197.914 182.686L191.244 186.299C191.255 186.319 191.265 186.34 191.276 186.362L191.293 186.397L191.317 186.449C191.366 186.553 191.417 186.663 191.488 186.764L191.466 186.776C191.495 186.829 191.52 186.884 191.543 186.939L191.553 186.962L191.572 187.006L191.573 187.009L191.587 187.04L191.605 187.082L191.613 187.101L191.625 187.128C191.637 187.154 191.65 187.179 191.662 187.203L191.685 187.27C191.728 187.4 191.766 187.514 191.821 187.618L198.492 184.006C198.472 183.938 198.442 183.868 198.412 183.798C198.383 183.727 198.353 183.657 198.333 183.59L198.333 183.59C198.312 183.551 198.294 183.512 198.277 183.474C198.262 183.442 198.249 183.409 198.235 183.377L198.235 183.377C198.209 183.314 198.182 183.251 198.149 183.187L198.174 183.173L197.914 182.686ZM191.833 187.641L198.504 184.029L198.626 184.433L191.955 188.046L191.833 187.641ZM198.625 184.434L191.954 188.047L192.076 188.451L198.747 184.839L198.625 184.434ZM192.209 189.287L198.88 185.675C198.896 185.822 198.912 185.97 198.94 186.08L198.94 186.08C198.957 186.228 198.973 186.375 198.976 186.499L192.305 190.111C192.297 190.037 192.292 189.97 192.287 189.902C192.285 189.869 192.283 189.836 192.28 189.802L192.277 189.768L192.275 189.75L192.272 189.712L192.27 189.693L192.269 189.693L192.269 189.693C192.253 189.545 192.237 189.398 192.209 189.287ZM192.292 191.026L198.963 187.414C198.954 187.575 198.946 187.735 198.914 187.909L192.243 191.521C192.256 191.433 192.265 191.335 192.274 191.223C192.279 191.162 192.285 191.097 192.292 191.026ZM198.927 187.933L192.257 191.545C192.224 191.719 192.191 191.893 192.172 192.091L198.843 188.478C198.859 188.392 198.872 188.299 198.885 188.206L198.885 188.206C198.898 188.113 198.911 188.02 198.927 187.933Z" fill="#1F1F54" fill-opacity="0.3"/>
</g>
<path fill-rule="evenodd" clip-rule="evenodd" d="M25.9451 53.7259L32.6452 50.2272L32.9397 50.0761L26.2151 53.5874L25.9451 53.7259ZM26.2391 53.5755L32.9391 50.0768C32.987 50.0523 33.1343 49.9997 33.362 49.9297L33.9226 49.6344C34.191 49.5239 34.4503 49.4417 34.7249 49.3546L34.7249 49.3546L34.8427 49.3172L34.869 49.3035L34.869 49.3035C35.1642 49.2141 35.4594 49.1248 35.7426 49.0726L34.856 49.5355L34.8584 49.5349L35.743 49.073C35.8374 49.0556 35.9304 49.0355 36.0234 49.0154C36.2095 48.9751 36.3955 48.9348 36.5927 48.9164L35.7874 49.3369L35.7884 49.3367L36.5926 48.9168C36.875 48.8647 37.1331 48.8252 37.4279 48.7975L37.4295 48.7967L37.4296 48.7966C37.7009 48.7816 37.9721 48.7665 38.2679 48.7389L37.7035 49.0336L37.7045 49.0335L38.2684 48.739C38.404 48.7315 38.5428 48.7301 38.6816 48.7287C38.8204 48.7273 38.9592 48.7259 39.0949 48.7184L39.0701 48.7313C39.2118 48.7361 39.3474 48.744 39.4829 48.7519C39.6187 48.7598 39.7546 48.7677 39.8965 48.7724L39.6565 48.8977L39.657 48.8977L39.8971 48.7723C40.1655 48.7813 40.4231 48.8235 40.6802 48.8675L40.7128 48.8504C40.7931 48.8642 40.8756 48.8769 40.9593 48.8898L40.9594 48.8898L40.9594 48.8898L40.9595 48.8898L40.9595 48.8898L40.9595 48.8898L40.9595 48.8898L40.9596 48.8898L40.9596 48.8898C41.1591 48.9205 41.3654 48.9522 41.5658 49.0024L41.5325 49.0197L41.534 49.0205L41.5662 49.0037C41.7085 49.0393 41.8569 49.0718 42.0053 49.1042C42.153 49.1365 42.3007 49.1688 42.4424 49.2042L42.4433 49.2037C42.765 49.2869 43.0622 49.3827 43.3593 49.4785L42.8708 49.7335L42.8725 49.7344L43.3611 49.4793C43.6839 49.5833 43.9838 49.6991 44.2943 49.8374L44.3143 49.8269L44.4043 49.8661C44.7385 50.0117 45.098 50.1682 45.4163 50.3457L45.4168 50.3455C45.8758 50.5754 46.3228 50.8425 46.7824 51.1341L46.1329 51.4733L46.1335 51.4736L46.7831 51.1344C47.2799 51.438 47.7402 51.7914 48.213 52.1693L47.8214 52.3738L49.001 53.0029C48.9379 53.0289 47.9548 53.0625 46.4293 53.1007L41.4884 55.6806C41.0155 55.3026 40.5553 54.9493 40.0585 54.6457L42.865 53.1803C42.8646 53.1803 42.8641 53.1803 42.8637 53.1803L40.0578 54.6454C39.6232 54.3415 39.1523 54.0873 38.6939 53.8576L38.6933 53.8579C38.3557 53.6694 38.0069 53.516 37.6236 53.3527L37.6029 53.3635L37.6029 53.3635C37.5469 53.3383 37.4909 53.3131 37.4349 53.2883C31.8897 53.397 26.403 53.5067 26.2391 53.5755Z" fill="url(#paint0_linear_273_66779)"/>
<path d="M165.608 203.309L172.333 199.798C172.21 199.861 172.112 199.911 171.989 199.974L165.264 203.486C165.375 203.46 165.485 203.372 165.608 203.309Z" fill="#858585"/>
<path d="M188.684 189.549L195.384 186.051L172.307 199.811L165.607 203.309L188.684 189.549Z" fill="url(#paint1_linear_273_66779)"/>
<path d="M41.4909 55.6792L48.203 52.1433L195.7 172.521L188.988 176.057L41.4909 55.6792Z" fill="url(#paint2_linear_273_66779)"/>
<path fill-rule="evenodd" clip-rule="evenodd" d="M188 176.008L195 172.003C196 172.508 196.783 173.547 197.196 174.111L197.219 174.099C197.388 174.312 197.535 174.536 197.68 174.762L197.684 174.76C197.72 174.812 197.924 175.122 198.163 175.636L198.249 175.804L198.241 175.808C198.424 176.225 198.619 176.754 198.768 177.373L198.798 177.478L198.793 177.48C199.1 178.824 199.186 180.571 198.5 182.51L198.371 182.607C197.799 184.007 196.789 185.242 195.396 186.078L188.672 189.589C189.387 189.161 189.993 188.636 190.492 188.042C190.514 187.166 190.625 185.191 190.734 183.245L190.734 183.245C190.869 180.853 191.001 178.504 190.963 178.285C190.815 178.056 190.667 177.827 190.495 177.61L190.471 177.622C190.232 177.267 189.566 176.908 188.957 176.579C188.578 176.374 188.22 176.181 188 176.008Z" fill="url(#paint3_linear_273_66779)"/>
<g style="mix-blend-mode:lighten" filter="url(#filter1_f_273_66779)">
<path d="M25.3217 54.0739C30.3123 51.1108 36.6733 51.7259 41.4901 55.677L188.987 176.055C193.48 179.738 193.32 186.8 188.673 189.587L165.597 203.346C163.009 204.891 159.662 204.591 157.136 202.567L31.3173 103.117C25.7929 98.753 21.9842 92.1133 20.9966 85.0503L18.7042 68.9155C17.8378 62.8141 20.4292 56.9866 25.3217 54.0739Z" fill="url(#paint4_linear_273_66779)" fill-opacity="0.6"/>
</g>
<path d="M25.3217 54.0739C30.3123 51.1108 36.6733 51.7259 41.4901 55.677L188.987 176.055C193.48 179.738 193.32 186.8 188.673 189.587L165.597 203.346C163.009 204.891 159.662 204.591 157.136 202.567L31.3173 103.117C25.7929 98.753 21.9842 92.1133 20.9966 85.0503L18.7042 68.9155C17.8378 62.8141 20.4292 56.9866 25.3217 54.0739Z" fill="url(#paint5_linear_273_66779)"/>
<defs>
<filter id="filter0_f_273_66779" x="10.8325" y="52.5068" width="194.141" height="165.735" filterUnits="userSpaceOnUse" color-interpolation-filters="sRGB">
<feFlood flood-opacity="0" result="BackgroundImageFix"/>
<feBlend mode="normal" in="SourceGraphic" in2="BackgroundImageFix" result="shape"/>
<feGaussianBlur stdDeviation="2.99879" result="effect1_foregroundBlur_273_66779"/>
</filter>
<filter id="filter1_f_273_66779" x="9.31202" y="42.9888" width="192.175" height="170.563" filterUnits="userSpaceOnUse" color-interpolation-filters="sRGB">
<feFlood flood-opacity="0" result="BackgroundImageFix"/>
<feBlend mode="normal" in="SourceGraphic" in2="BackgroundImageFix" result="shape"/>
<feGaussianBlur stdDeviation="4.61352" result="effect1_foregroundBlur_273_66779"/>
</filter>
<linearGradient id="paint0_linear_273_66779" x1="31.7238" y1="50.1203" x2="44.0529" y2="53.8081" gradientUnits="userSpaceOnUse">
<stop stop-color="#FFEDE8"/>
<stop offset="0.940625" stop-color="#FFCDC5"/>
</linearGradient>
<linearGradient id="paint1_linear_273_66779" x1="191.228" y1="187.95" x2="162.914" y2="203.51" gradientUnits="userSpaceOnUse">
<stop stop-color="#BE3038"/>
<stop offset="1" stop-color="#910007"/>
</linearGradient>
<linearGradient id="paint2_linear_273_66779" x1="42.9428" y1="54.019" x2="193.376" y2="175.963" gradientUnits="userSpaceOnUse">
<stop stop-color="#FFCEC3"/>
<stop offset="1" stop-color="#FF9F87"/>
</linearGradient>
<linearGradient id="paint3_linear_273_66779" x1="189.442" y1="174.854" x2="195.265" y2="186.207" gradientUnits="userSpaceOnUse">
<stop stop-color="#FF9F8F"/>
<stop offset="0.935417" stop-color="#BE3000"/>
</linearGradient>
<linearGradient id="paint4_linear_273_66779" x1="28.6204" y1="45.8075" x2="164.353" y2="212.883" gradientUnits="userSpaceOnUse">
<stop stop-color="#FEBB08"/>
<stop offset="1" stop-color="#FF0000"/>
</linearGradient>
<linearGradient id="paint5_linear_273_66779" x1="42.1952" y1="-68.7442" x2="117.898" y2="240.081" gradientUnits="userSpaceOnUse">
<stop stop-color="#E3AB9A"/>
<stop offset="1" stop-color="#DC5224"/>
</linearGradient>
</defs>
</svg>

<svg width="209" height="256" fill="none" xmlns="http://www.w3.org/2000/svg"><g filter="url(#a)"><path fill-rule="evenodd" clip-rule="evenodd" d="m24.34 63.555-.026.013-.268.143 6.647-3.6.248-.132.043-.023c.316-.169.646-.313.975-.457l-6.67 3.613c-.14.06-.284.128-.429.198.192-.088.386-.17.582-.249l6.52-3.561c.266-.115.524-.201.797-.292l.119-.04.025-.013c.293-.094.586-.188.868-.244.095-.02.188-.04.28-.062.186-.043.37-.086.567-.108h.002c.282-.057.54-.1.835-.132l-6.644 3.598h.003l6.641-3.597c.27-.02.54-.038.834-.07l.004-.002c.136-.01.275-.013.413-.017.14-.004.278-.007.413-.017l-6.665 3.61h.001l6.64-3.596c.142.003.278.008.414.014.136.006.272.012.414.015l-6.64 3.595h.001l6.638-3.595c.269.005.527.044.785.084l.033-.018.247.035c.2.028.407.057.608.104L32.95 62.35h.003l6.642-3.597c.143.034.292.064.44.094.149.03.297.06.44.094v-.001c.324.078.622.17.92.26.325.1.627.211.939.344l.02-.01.09.038c.338.14.7.292 1.021.465l-6.66 3.606h.001l6.66-3.605c.461.223.912.483 1.376.767.494.292.954.633 1.425.998l.008-.005 149.3 118.134-6.025 3.292 6.036-3.269a8.412 8.412 0 0 1 1.509 1.542l-6.663 3.608a8.95 8.95 0 0 1 1.764 4.147 1.563 1.563 0 0 0-.059-.395l-.001.001a1.971 1.971 0 0 0-.084-.393l6.671-3.613c.024.08.04.165.054.244.01.053.019.103.03.148l.001-.001c.04.135.056.283.059.406l-6.669 3.612c.042.287.071.576.085.864l6.668-3.612c.011.101.011.208.01.305l.001.127-.025.482-6.657 3.605a8.372 8.372 0 0 1-.264 1.672l.032-.017.123-.595 6.671-3.612-.132.633-.051.028a9.9 9.9 0 0 1-.239.718l-6.644 3.598a7.242 7.242 0 0 1-2.685 3.46l.01-.006a7.134 7.134 0 0 0 2.662-3.413l6.671-3.613a7.216 7.216 0 0 1-2.956 3.606l-.449.243-22.432 13.839-.012.007.038-.021-6.263 3.392-.42.259c-2.564 1.583-5.915 1.334-8.471-.651L30.161 113.022c-5.59-4.28-9.498-10.861-10.593-17.908l-2.536-16.098c-.958-6.088 1.545-11.954 6.392-14.94.345-.212.697-.407 1.055-.584a8.342 8.342 0 0 1-.14.063Zm167.63 129.317a2.499 2.499 0 0 1-.096.308c.034-.102.066-.205.096-.308Zm.323-2.302c.023.144.019.28-.011.409.007-.136.011-.273.011-.409Zm-.009-.406c.014.131.026.261.009.382 0-.127-.003-.254-.009-.382Zm-1.991-5.234a7.268 7.268 0 0 0-1.375-1.361h-.001l-.002-.001c.519.413.979.87 1.378 1.362ZM39.617 65.435l.957-.523-.957.519a16.393 16.393 0 0 0-1.147-.828c.39.257.772.534 1.145.831l.002.001Zm-1.71-1.188Zm-11.47-1.538c-.07.019-.138.038-.204.058l-.025.014a12.974 12.974 0 0 1 .23-.072Zm170.681 118.776-6.671 3.612c.179.218.333.449.487.68l.001-.001c.099.185.187.348.297.499l6.671-3.613c-.091-.17-.182-.341-.31-.523l-.004.002c-.149-.223-.298-.446-.471-.656Zm.796 1.201-6.67 3.613.032.063.017.035.024.052c.049.104.1.214.171.315l-.022.012c.029.053.054.108.077.163l.01.023.019.044.001.003.014.031.018.042.008.019.012.027.037.075.023.067c.043.13.081.244.136.348l6.671-3.612c-.02-.068-.05-.138-.08-.208-.029-.071-.059-.141-.079-.208a1.746 1.746 0 0 1-.056-.116c-.015-.032-.028-.065-.042-.097a2.431 2.431 0 0 0-.086-.19l.025-.014-.26-.487Zm-6.081 4.955 6.671-3.612.122.404-6.671 3.613-.122-.405Zm6.792-3.207-6.671 3.613.122.404 6.671-3.612-.122-.405Zm-6.416 4.853 6.671-3.612c.016.147.032.295.06.405.017.148.033.295.036.419l-6.671 3.612a5.926 5.926 0 0 1-.018-.209l-.007-.1-.003-.034-.002-.018-.003-.038-.002-.019h-.001a3.24 3.24 0 0 0-.06-.406Zm.083 1.739 6.671-3.612c-.009.161-.017.321-.049.495l-6.671 3.612c.013-.088.022-.186.031-.298l.018-.197Zm6.635-3.093-6.67 3.612a5.806 5.806 0 0 0-.085.546l6.671-3.613a6.26 6.26 0 0 0 .042-.272c.013-.093.026-.186.042-.273Z" fill="#1F1F54" fill-opacity=".3"/></g><path fill-rule="evenodd" clip-rule="evenodd" d="m25.945 53.726 6.7-3.499.295-.15-6.725 3.51-.27.139Zm.294-.15 6.7-3.5c.048-.024.195-.076.423-.146l.56-.296c.269-.11.528-.192.803-.28l.118-.037.026-.014c.295-.089.59-.178.874-.23l-.887.462h.002l.885-.462c.094-.017.187-.038.28-.058.186-.04.372-.08.57-.099l-.806.42h.001l.805-.42c.282-.051.54-.09.835-.118l.002-.001c.27-.015.542-.03.838-.058l-.565.295h.002l.563-.295c.136-.008.275-.009.414-.01.138-.002.277-.003.413-.01l-.025.012c.142.005.277.013.413.02.136.009.272.017.414.021l-.24.126.24-.126c.269.01.526.052.783.096l.033-.018.246.04c.2.03.406.062.607.112l-.034.018h.002l.032-.016c.142.035.29.068.44.1.147.032.295.065.436.1h.001c.322.083.62.179.916.274l-.488.255.002.001.488-.255c.323.104.623.22.933.358l.02-.01.09.04c.334.145.694.301 1.012.479.46.23.907.497 1.366.788l-.65.34h.002l.65-.34c.496.304.956.657 1.429 1.035l-.392.205 1.18.629c-.063.026-1.046.06-2.572.098l-4.94 2.58c-.473-.378-.934-.732-1.43-1.035l2.806-1.466h-.001l-2.806 1.465a10.872 10.872 0 0 0-1.364-.787 11.031 11.031 0 0 0-1.07-.505l-.021.01-.168-.075c-5.545.109-11.032.219-11.196.288Z" fill="url(#b)"/><path d="m165.608 203.309 6.725-3.511-.344.176-6.725 3.512c.111-.026.221-.114.344-.177Z" fill="#858585"/><path d="m188.684 189.549 6.7-3.498-23.077 13.76-6.7 3.498 23.077-13.76Z" fill="url(#c)"/><path d="m41.49 55.68 6.713-3.537L195.7 172.521l-6.712 3.536L41.491 55.679Z" fill="url(#d)"/><path fill-rule="evenodd" clip-rule="evenodd" d="m188 176.008 7-4.005c1 .505 1.783 1.544 2.196 2.108l.023-.012c.169.213.316.437.461.663l.004-.002c.036.052.24.362.479.876l.086.168-.008.004c.183.417.378.946.527 1.565l.03.105-.005.002a8.945 8.945 0 0 1-.293 5.03l-.129.097a7.217 7.217 0 0 1-2.975 3.471l-6.724 3.511a7.188 7.188 0 0 0 1.82-1.547c.022-.876.133-2.851.242-4.797.135-2.392.267-4.741.229-4.96-.148-.229-.296-.458-.468-.675l-.024.012c-.239-.355-.905-.714-1.514-1.043-.379-.205-.737-.398-.957-.571Z" fill="url(#e)"/><g style="mix-blend-mode:lighten" filter="url(#f)"><path d="M25.322 54.074c4.99-2.963 11.351-2.348 16.168 1.603l147.497 120.378c4.493 3.683 4.333 10.745-.314 13.532l-23.076 13.759c-2.588 1.545-5.935 1.245-8.461-.779l-125.819-99.45c-5.524-4.364-9.333-11.004-10.32-18.067l-2.293-16.135c-.866-6.1 1.725-11.928 6.618-14.841Z" fill="url(#g)" fill-opacity=".6"/></g><path d="M25.322 54.074c4.99-2.963 11.351-2.348 16.168 1.603l147.497 120.378c4.493 3.683 4.333 10.745-.314 13.532l-23.076 13.759c-2.588 1.545-5.935 1.245-8.461-.779l-125.819-99.45c-5.524-4.364-9.333-11.004-10.32-18.067l-2.293-16.135c-.866-6.1 1.725-11.928 6.618-14.841Z" fill="url(#h)"/><defs><linearGradient id="b" x1="31.724" y1="50.12" x2="44.053" y2="53.808" gradientUnits="userSpaceOnUse"><stop stop-color="#FFEDE8"/><stop offset=".941" stop-color="#FFCDC5"/></linearGradient><linearGradient id="c" x1="191.228" y1="187.95" x2="162.914" y2="203.51" gradientUnits="userSpaceOnUse"><stop stop-color="#BE3038"/><stop offset="1" stop-color="#910007"/></linearGradient><linearGradient id="d" x1="42.943" y1="54.019" x2="193.376" y2="175.963" gradientUnits="userSpaceOnUse"><stop stop-color="#FFCEC3"/><stop offset="1" stop-color="#FF9F87"/></linearGradient><linearGradient id="e" x1="189.442" y1="174.854" x2="195.265" y2="186.207" gradientUnits="userSpaceOnUse"><stop stop-color="#FF9F8F"/><stop offset=".935" stop-color="#BE3000"/></linearGradient><linearGradient id="g" x1="28.62" y1="45.807" x2="164.353" y2="212.883" gradientUnits="userSpaceOnUse"><stop stop-color="#FEBB08"/><stop offset="1" stop-color="red"/></linearGradient><linearGradient id="h" x1="42.195" y1="-68.744" x2="117.898" y2="240.081" gradientUnits="userSpaceOnUse"><stop stop-color="#E3AB9A"/><stop offset="1" stop-color="#DC5224"/></linearGradient><filter id="a" x="10.832" y="52.507" width="194.141" height="165.735" filterUnits="userSpaceOnUse" color-interpolation-filters="sRGB"><feFlood flood-opacity="0" result="BackgroundImageFix"/><feBlend in="SourceGraphic" in2="BackgroundImageFix" result="shape"/><feGaussianBlur stdDeviation="2.999" result="effect1_foregroundBlur_273_66779"/></filter><filter id="f" x="9.312" y="42.989" width="192.175" height="170.563" filterUnits="userSpaceOnUse" color-interpolation-filters="sRGB"><feFlood flood-opacity="0" result="BackgroundImageFix"/><feBlend in="SourceGraphic" in2="BackgroundImageFix" result="shape"/><feGaussianBlur stdDeviation="4.614" result="effect1_foregroundBlur_273_66779"/></filter></defs></svg>
